X:49
T:Fiddler Doyle's* (r)
B:NFID.105b ("untitled reel")
049fidd_d
S:SD
N:Lower note of the double-stop is the melody note.
L:1/8
M:C
R:reel
Q:360
K:D=C
d|A2AG Addc|A2AG ECCE|A2AG Adde|(3fgf ef fdd2|
A2AG Addc|A2AG ECCE|(3ABA AG Adde|(3fgf ef fdd:|
e|fd^cd [eA][fB]ce|fd^cd efge|fd^cd [eA][fB]ce|eaag edde|
fd^cd [eA][fB]ce|fd^cd efge|a2ag efg(3e/f/g/|aged ^cAAG||

%%%

